!!!OTL: ES HATT EIN BAUR EIN TOECHTERLEIN
!!!ARE: Europa, Mitteleuropa, Deutschland, Schlesien, Breslau
!!!SCT: E0001D
!!!YEM: Copyright 1995, estate of Helmut Schaffrath.
**kern
*ICvox
*Ivox
*M2/4
*k[b-]
*F:
{8c
=1
8f
8e
8f
8g
=2
8.a
16g
8f
8r}
=3
{8a
8g
8a
8b-
=4
8.cc
16b-
8a}
{8f
=5
4ff
8dd
8ff
=6
4cc
8r}
{8cc
=7
8dd
8b-
8g
8dd
=8
8.cc
16a
8f}
{8g
=9
8a
8cc
8b-
8g
=10
4f
8r}
==
!!!AGN: Sage, Maerchen -, Zauber - Lied, Ballade ?
!!!ONB: ESAC (Essen Associative Code) Database: ERK1
!!!AMT: simple duple
!!!AIN: vox
!!!EED: Helmut Schaffrath
!!!EEV: 1.0
*-
